austria/municipalities/70938.svg

<?xml version="1.0" encoding="UTF-8"?>
<!DOCTYPE svg PUBLIC "-//W3C//DTD SVG 1.1//EN" "http://www.w3.org/Graphics/SVG/1.1/DTD/svg11.dtd">
<svg xmlns="http://www.w3.org/2000/svg" version="1.1" width="166px" height="192px" style="shape-rendering:geometricPrecision; text-rendering:geometricPrecision; image-rendering:optimizeQuality; fill-rule:evenodd; clip-rule:evenodd" xmlns:xlink="http://www.w3.org/1999/xlink">
<g><path style="opacity:1" fill="#000000" d="M -0.5,-0.5 C 54.8333,-0.5 110.167,-0.5 165.5,-0.5C 165.5,39.5 165.5,79.5 165.5,119.5C 161.89,140.883 151.89,158.716 135.5,173C 130.672,176.581 125.672,179.915 120.5,183C 112.336,186.554 104.002,189.388 95.5,191.5C 86.8333,191.5 78.1667,191.5 69.5,191.5C 30.064,182.064 6.73062,157.397 -0.5,117.5C -0.5,78.1667 -0.5,38.8333 -0.5,-0.5 Z"/></g>
<g><path style="opacity:1" fill="#fefefe" d="M 3.5,3.5 C 56.1667,3.5 108.833,3.5 161.5,3.5C 161.5,38.1667 161.5,72.8333 161.5,107.5C 135.5,107.5 109.5,107.5 83.5,107.5C 83.5,95.1667 83.5,82.8333 83.5,70.5C 56.8333,70.5 30.1667,70.5 3.5,70.5C 3.5,48.1667 3.5,25.8333 3.5,3.5 Z"/></g>
<g><path style="opacity:1" fill="#000000" d="M 28.5,32.5 C 27.5104,26.69 27.1771,20.69 27.5,14.5C 30.8333,14.5 34.1667,14.5 37.5,14.5C 37.5,18.1667 37.5,21.8333 37.5,25.5C 38.5,25.5 39.5,25.5 40.5,25.5C 40.5,21.8333 40.5,18.1667 40.5,14.5C 43.5,14.5 46.5,14.5 49.5,14.5C 49.5,18.1667 49.5,21.8333 49.5,25.5C 50.5,25.5 51.5,25.5 52.5,25.5C 52.5,21.8333 52.5,18.1667 52.5,14.5C 55.8333,14.5 59.1667,14.5 62.5,14.5C 62.8097,20.7576 62.4764,26.9242 61.5,33C 50.3255,33.8257 39.3255,33.659 28.5,32.5 Z"/></g>
<g><path style="opacity:1" fill="#fe9900" d="M 28.5,32.5 C 28.5,26.8333 28.5,21.1667 28.5,15.5C 31.1667,15.5 33.8333,15.5 36.5,15.5C 36.5,19.1667 36.5,22.8333 36.5,26.5C 38.5,26.5 40.5,26.5 42.5,26.5C 42.5,22.8333 42.5,19.1667 42.5,15.5C 44.5,15.5 46.5,15.5 48.5,15.5C 48.5,19.1667 48.5,22.8333 48.5,26.5C 50.1667,26.5 51.8333,26.5 53.5,26.5C 53.5,22.8333 53.5,19.1667 53.5,15.5C 55.8333,15.5 58.1667,15.5 60.5,15.5C 60.5,21.1667 60.5,26.8333 60.5,32.5C 49.8333,32.5 39.1667,32.5 28.5,32.5 Z"/></g>
<g><path style="opacity:1" fill="#000000" d="M 144.5,28.5 C 142.5,28.1667 140.5,27.8333 138.5,27.5C 138.5,23.8333 138.5,20.1667 138.5,16.5C 130.5,16.5 122.5,16.5 114.5,16.5C 114.5,34.8333 114.5,53.1667 114.5,71.5C 122.5,71.5 130.5,71.5 138.5,71.5C 138.19,68.2869 138.523,65.2869 139.5,62.5C 139.5,65.8333 139.5,69.1667 139.5,72.5C 130.833,72.5 122.167,72.5 113.5,72.5C 113.5,53.5 113.5,34.5 113.5,15.5C 122.167,15.5 130.833,15.5 139.5,15.5C 139.5,19.1667 139.5,22.8333 139.5,26.5C 141.698,26.1201 143.365,26.7868 144.5,28.5 Z"/></g>
<g><path style="opacity:1" fill="#fe9900" d="M 144.5,28.5 C 145.514,29.6737 146.847,30.3404 148.5,30.5C 153.478,36.6956 155.145,43.6956 153.5,51.5C 152.326,52.5137 151.66,53.847 151.5,55.5C 150.167,56.1667 149.167,57.1667 148.5,58.5C 147.29,58.9321 146.29,59.5987 145.5,60.5C 143.102,60.2594 141.102,60.9261 139.5,62.5C 138.523,65.2869 138.19,68.2869 138.5,71.5C 130.5,71.5 122.5,71.5 114.5,71.5C 114.5,53.1667 114.5,34.8333 114.5,16.5C 122.5,16.5 130.5,16.5 138.5,16.5C 138.5,20.1667 138.5,23.8333 138.5,27.5C 140.5,27.8333 142.5,28.1667 144.5,28.5 Z"/></g>
<g><path style="opacity:1" fill="#000000" d="M 134.5,30.5 C 133.523,27.7131 133.19,24.7131 133.5,21.5C 128.833,21.5 124.167,21.5 119.5,21.5C 119.5,36.5 119.5,51.5 119.5,66.5C 124.167,66.5 128.833,66.5 133.5,66.5C 133.336,63.8127 133.503,61.146 134,58.5C 136.687,57.287 139.52,56.6203 142.5,56.5C 140.256,57.9298 137.756,58.9298 135,59.5C 134.503,62.146 134.336,64.8127 134.5,67.5C 129.167,67.5 123.833,67.5 118.5,67.5C 118.5,51.8333 118.5,36.1667 118.5,20.5C 123.833,20.5 129.167,20.5 134.5,20.5C 134.5,23.8333 134.5,27.1667 134.5,30.5 Z"/></g>
<g><path style="opacity:1" fill="#fefefe" d="M 134.5,30.5 C 136.438,32.1628 138.772,32.8294 141.5,32.5C 145.167,34.1667 147.833,36.8333 149.5,40.5C 149.668,44.6575 149.002,48.6575 147.5,52.5C 146.5,52.8333 145.833,53.5 145.5,54.5C 145.027,55.9063 144.027,56.573 142.5,56.5C 139.52,56.6203 136.687,57.287 134,58.5C 133.503,61.146 133.336,63.8127 133.5,66.5C 128.833,66.5 124.167,66.5 119.5,66.5C 119.5,51.5 119.5,36.5 119.5,21.5C 124.167,21.5 128.833,21.5 133.5,21.5C 133.19,24.7131 133.523,27.7131 134.5,30.5 Z"/></g>
<g><path style="opacity:1" fill="#000000" d="M 144.5,28.5 C 146.38,28.2291 147.713,28.8958 148.5,30.5C 146.847,30.3404 145.514,29.6737 144.5,28.5 Z"/></g>
<g><path style="opacity:1" fill="#000000" d="M 134.5,30.5 C 137.228,30.1706 139.562,30.8372 141.5,32.5C 138.772,32.8294 136.438,32.1628 134.5,30.5 Z"/></g>
<g><path style="opacity:1" fill="#000000" d="M 148.5,30.5 C 150.017,30.5106 151.184,31.1772 152,32.5C 155.864,38.7282 156.364,45.0616 153.5,51.5C 155.145,43.6956 153.478,36.6956 148.5,30.5 Z"/></g>
<g><path style="opacity:1" fill="#000000" d="M 106.5,32.5 C 108.167,32.5 109.833,32.5 111.5,32.5C 111.5,40.8333 111.5,49.1667 111.5,57.5C 109.833,57.5 108.167,57.5 106.5,57.5C 106.5,49.1667 106.5,40.8333 106.5,32.5 Z"/></g>
<g><path style="opacity:1" fill="#000000" d="M 141.5,32.5 C 146.543,32.8766 149.21,35.5433 149.5,40.5C 147.833,36.8333 145.167,34.1667 141.5,32.5 Z"/></g>
<g><path style="opacity:1" fill="#fe9900" d="M 107.5,34.5 C 108.5,34.5 109.5,34.5 110.5,34.5C 110.5,41.8333 110.5,49.1667 110.5,56.5C 109.5,56.5 108.5,56.5 107.5,56.5C 107.5,49.1667 107.5,41.8333 107.5,34.5 Z"/></g>
<g><path style="opacity:1" fill="#000000" d="M 13.5,36.5 C 43.8333,36.5 74.1667,36.5 104.5,36.5C 104.5,41.5 104.5,46.5 104.5,51.5C 74.1667,51.5 43.8333,51.5 13.5,51.5C 13.5,46.5 13.5,41.5 13.5,36.5 Z"/></g>
<g><path style="opacity:1" fill="#fe9900" d="M 15.5,37.5 C 44.8333,37.5 74.1667,37.5 103.5,37.5C 103.5,41.8333 103.5,46.1667 103.5,50.5C 74.1667,50.5 44.8333,50.5 15.5,50.5C 15.5,46.1667 15.5,41.8333 15.5,37.5 Z"/></g>
<g><path style="opacity:1" fill="#000000" d="M 149.5,40.5 C 150.634,42.9664 150.801,45.633 150,48.5C 149.878,50.437 149.045,51.7703 147.5,52.5C 149.045,51.7703 149.878,50.437 150,48.5C 150.801,45.633 150.634,42.9664 149.5,40.5 Z"/></g>
<g><path style="opacity:1" fill="#000000" d="M 153.5,51.5 C 153.771,53.3797 153.104,54.713 151.5,55.5C 151.66,53.847 152.326,52.5137 153.5,51.5 Z"/></g>
<g><path style="opacity:1" fill="#000000" d="M 147.5,52.5 C 147.5,53.8333 146.833,54.5 145.5,54.5C 145.833,53.5 146.5,52.8333 147.5,52.5 Z"/></g>
<g><path style="opacity:1" fill="#000000" d="M 151.5,55.5 C 151.5,57.5 150.5,58.5 148.5,58.5C 149.167,57.1667 150.167,56.1667 151.5,55.5 Z"/></g>
<g><path style="opacity:1" fill="#000000" d="M 145.5,60.5 C 143.898,62.0739 141.898,62.7406 139.5,62.5C 141.102,60.9261 143.102,60.2594 145.5,60.5 Z"/></g>
<g><path style="opacity:1" fill="#006632" d="M 3.5,72.5 C 29.5,72.5 55.5,72.5 81.5,72.5C 81.5,84.8333 81.5,97.1667 81.5,109.5C 108.167,109.5 134.833,109.5 161.5,109.5C 160.614,140.217 146.947,163.383 120.5,179C 96.8098,189.531 72.8098,190.198 48.5,181C 24.1447,168.308 9.31135,148.475 4,121.5C 3.50007,105.17 3.3334,88.8367 3.5,72.5 Z"/></g>
<g><path style="opacity:1" fill="#fefffe" d="M -0.5,117.5 C 6.73062,157.397 30.064,182.064 69.5,191.5C 46.1667,191.5 22.8333,191.5 -0.5,191.5C -0.5,166.833 -0.5,142.167 -0.5,117.5 Z"/></g>
<g><path style="opacity:1" fill="#fefffe" d="M 165.5,119.5 C 165.5,143.5 165.5,167.5 165.5,191.5C 142.167,191.5 118.833,191.5 95.5,191.5C 104.002,189.388 112.336,186.554 120.5,183C 125.672,179.915 130.672,176.581 135.5,173C 151.89,158.716 161.89,140.883 165.5,119.5 Z"/></g>
</svg>

<svg xmlns="http://www.w3.org/2000/svg" width="166" height="192" style="shape-rendering:geometricPrecision;text-rendering:geometricPrecision;image-rendering:optimizeQuality;fill-rule:evenodd;clip-rule:evenodd"><path style="opacity:1" d="M-.5-.5h166v120c-3.61 21.383-13.61 39.216-30 53.5a179.617 179.617 0 0 1-15 10 157.946 157.946 0 0 1-25 8.5h-26c-39.436-9.436-62.77-34.103-70-74V-.5z"/><path style="opacity:1" fill="#fefefe" d="M3.5 3.5h158v104h-78v-37h-80v-67z"/><path style="opacity:1" d="M28.5 32.5c-.99-5.81-1.323-11.81-1-18h10v11h3v-11h9v11h3v-11h10a88.66 88.66 0 0 1-1 18.5c-11.175.826-22.175.659-33-.5z"/><path style="opacity:1" fill="#fe9900" d="M28.5 32.5v-17h8v11h6v-11h6v11h5v-11h7v17h-32z"/><path style="opacity:1" d="m144.5 28.5-6-1v-11h-24v55h24c-.31-3.213.023-6.213 1-9v10h-26v-57h26v11c2.198-.38 3.865.287 5 2z"/><path style="opacity:1" fill="#fe9900" d="M144.5 28.5c1.014 1.174 2.347 1.84 4 2 4.978 6.196 6.645 13.196 5 21-1.174 1.014-1.84 2.347-2 4a6.544 6.544 0 0 0-3 3c-1.21.432-2.21 1.099-3 2-2.398-.24-4.398.426-6 2-.977 2.787-1.31 5.787-1 9h-24v-55h24v11l6 1z"/><path style="opacity:1" d="M134.5 30.5c-.977-2.787-1.31-5.787-1-9h-14v45h14a32.462 32.462 0 0 1 .5-8 22.69 22.69 0 0 1 8.5-2c-2.244 1.43-4.744 2.43-7.5 3a32.462 32.462 0 0 0-.5 8h-16v-47h16v10z"/><path style="opacity:1" fill="#fefefe" d="M134.5 30.5c1.938 1.663 4.272 2.33 7 2 3.667 1.667 6.333 4.333 8 8a29.354 29.354 0 0 1-2 12c-1 .333-1.667 1-2 2-.473 1.406-1.473 2.073-3 2a22.69 22.69 0 0 0-8.5 2 32.462 32.462 0 0 0-.5 8h-14v-45h14c-.31 3.213.023 6.213 1 9z"/><path style="opacity:1" d="M144.5 28.5c1.88-.27 3.213.396 4 2-1.653-.16-2.986-.826-4-2zM134.5 30.5c2.728-.33 5.062.337 7 2-2.728.33-5.062-.337-7-2zM148.5 30.5c1.517.01 2.684.677 3.5 2 3.864 6.228 4.364 12.562 1.5 19 1.645-7.804-.022-14.804-5-21zM106.5 32.5h5v25h-5v-25zM141.5 32.5c5.043.377 7.71 3.043 8 8-1.667-3.667-4.333-6.333-8-8z"/><path style="opacity:1" fill="#fe9900" d="M107.5 34.5h3v22h-3v-22z"/><path style="opacity:1" d="M13.5 36.5h91v15h-91v-15z"/><path style="opacity:1" fill="#fe9900" d="M15.5 37.5h88v13h-88v-13z"/><path style="opacity:1" d="M149.5 40.5c1.134 2.466 1.301 5.133.5 8-.122 1.937-.955 3.27-2.5 4 1.545-.73 2.378-2.063 2.5-4 .801-2.867.634-5.534-.5-8zM153.5 51.5c.271 1.88-.396 3.213-2 4 .16-1.653.826-2.986 2-4zM147.5 52.5c0 1.333-.667 2-2 2 .333-1 1-1.667 2-2zM151.5 55.5c0 2-1 3-3 3a6.544 6.544 0 0 1 3-3zM145.5 60.5c-1.602 1.574-3.602 2.24-6 2 1.602-1.574 3.602-2.24 6-2z"/><path style="opacity:1" fill="#006632" d="M3.5 72.5h78v37h80c-.886 30.717-14.553 53.883-41 69.5-23.69 10.531-47.69 11.198-72 2C24.145 168.308 9.311 148.475 4 121.5c-.5-16.33-.667-32.663-.5-49z"/><path style="opacity:1" fill="#fefffe" d="M-.5 117.5c7.23 39.897 30.564 64.564 70 74h-70v-74zM165.5 119.5v72h-70a157.946 157.946 0 0 0 25-8.5 179.617 179.617 0 0 0 15-10c16.39-14.284 26.39-32.117 30-53.5z"/></svg>
